include/LD/assets/icons/action/new_custom33.svg

<?xml version="1.0"?><svg xmlns="http://www.w3.org/2000/svg" width="52" height="52" viewBox="0 0 52 52"><g fill="#fff"><path d="m37.2 19.3h-21.7c-0.8 0-1.5 0.7-1.5 1.5v5.9c0 0.8 0.7 1.5 1.5 1.5h21.8c0.8 0 1.5-0.7 1.5-1.5v-5.9c0-0.8-0.7-1.5-1.6-1.5z m-10.4 6.7c-1.3 0-2.2-1-2.2-2.2 0-1.3 1-2.2 2.2-2.2s2.2 1 2.2 2.2c0 1.2-1 2.2-2.2 2.2z m21.7-17h-45c-0.8 0-1.5 0.7-1.5 1.5v1.5c0 1.6 1.3 3 3 3v26.6c0 0.7 0.7 1.4 1.5 1.4h1.5c0.8 0 1.5-0.7 1.5-1.5v-26.6h33.8v26.6c0 0.8 0.7 1.5 1.5 1.5h1.5c0.8 0 1.5-0.7 1.5-1.5v-26.6h-0.8c1.6 0 3-1.3 3-3v-1.5c0-0.7-0.7-1.4-1.5-1.4z"></path></g></svg>

<svg xmlns="http://www.w3.org/2000/svg" x="0px" y="0px"
	 width="52px" height="52px" viewBox="0 0 52 52" enable-background="new 0 0 52 52" xml:space="preserve">
<g>
	<path fill="#FFFFFF" d="M37.2,19.3H15.5c-0.8,0-1.5,0.7-1.5,1.5v5.9c0,0.8,0.7,1.5,1.5,1.5h21.8c0.8,0,1.5-0.7,1.5-1.5v-5.9
		C38.8,20,38.1,19.3,37.2,19.3z M26.8,26c-1.3,0-2.2-1-2.2-2.2c0-1.3,1-2.2,2.2-2.2s2.2,1,2.2,2.2C29,25,28,26,26.8,26z"/>
	<path fill="#FFFFFF" d="M48.5,9h-45C2.7,9,2,9.7,2,10.5V12c0,1.6,1.3,3,3,3l0,0v26.6C5,42.3,5.7,43,6.5,43H8c0.8,0,1.5-0.7,1.5-1.5
		V14.9h33.8v26.6c0,0.8,0.7,1.5,1.5,1.5h1.5c0.8,0,1.5-0.7,1.5-1.5V14.9H47c1.6,0,3-1.3,3-3v-1.5C50,9.7,49.3,9,48.5,9z"/>
</g>
</svg>
